public/img/quarter-icon-7.svg

<svg width="55" height="55" viewBox="0 0 55 55" fill="none" xmlns="http://www.w3.org/2000/svg">
<g clip-path="url(#clip0)">
<path d="M53.3399 46.5229L53.3103 46.4976L53.3442 46.4638L52.5881 45.826L47.3297 40.9436C47.3297 40.9436 47.241 41.0407 47.0847 41.1843L46.9454 41.3321C45.7459 42.4556 41.9024 45.6951 37.3916 45.7585C37.2944 45.7585 37.1973 45.7585 37.1002 45.7585C34.7265 45.5008 32.412 44.2295 30.0637 41.8685C26.1653 37.949 21.8361 35.8246 17.169 35.5331C17.0381 35.5331 16.9113 35.5331 16.7804 35.5331C16.0783 35.4709 15.373 35.4525 14.6686 35.4782C7.64472 35.7654 2.42014 40.4747 0.646224 42.2909C0.27877 42.6414 0.0506874 42.8864 0.00422773 42.9329L0.0295941 42.9582L0 42.9962L0.756042 43.6298L6.01018 48.5123L6.25941 48.2715L6.39882 48.1195C7.5941 46.996 11.4418 43.7565 15.9526 43.6973C16.0497 43.6973 16.1468 43.6973 16.244 43.6973C18.6176 43.955 20.9322 45.2305 23.2763 47.5873C27.1789 51.5068 31.5082 53.6313 36.1752 53.9227C36.3062 53.9227 36.4328 53.9227 36.5638 53.9227C37.2657 53.9885 37.9711 54.0082 38.6756 53.9818C45.6994 53.6904 50.924 48.9811 52.6937 47.1649C53.0611 46.8144 53.2935 46.5736 53.3399 46.5229Z" fill="#FFD100"/>
<path d="M30.8315 15.2049H26.1855V26.1863H30.8315V15.2049Z" fill="#FFD100"/>
<path d="M38.8569 15.2049H34.2109V26.1863H38.8569V15.2049Z" fill="#FFD100"/>
<path d="M46.8823 15.2049H42.2363V26.1863H46.8823V15.2049Z" fill="#FFD100"/>
<path d="M49.4149 27.8757H23.2285V29.9875H49.4149V27.8757Z" fill="#FFD100"/>
<path d="M49.8372 12.2484H23.2285V13.5155H49.8372V12.2484Z" fill="#FFD100"/>
<path d="M52.3724 30.8322H20.6953V32.944H52.3724V30.8322Z" fill="#FFD100"/>
<path d="M23.2285 11.4037H49.8372L36.5292 3.80118L23.2285 11.4037Z" fill="#FFD100"/>
<path d="M36.3259 2.52384L52.1202 11.826L53.2166 9.94867L36.3259 -9.15527e-05L19.4277 9.94867L20.5241 11.826L36.3259 2.52384Z" fill="#FFD100"/>
</g>
<defs>
<clipPath id="clip0">
<rect width="54.0621" height="54.0621" fill="white"/>
</clipPath>
</defs>
</svg>

<svg width="55" height="55" fill="none" xmlns="http://www.w3.org/2000/svg"><g clip-path="url(#clip0)" fill="#FFD100"><path d="M53.34 46.523l-.03-.025.034-.034-.756-.638-5.258-4.882s-.089.097-.245.24l-.14.148c-1.2 1.124-5.043 4.363-9.553 4.426H37.1c-2.373-.257-4.688-1.529-7.036-3.89-3.899-3.919-8.228-6.043-12.895-6.335h-.389a16.934 16.934 0 00-2.111-.055C7.645 35.765 2.42 40.475.646 42.291c-.367.35-.595.595-.642.642l.026.025-.03.038.756.634 5.254 4.882.25-.24.139-.152c1.195-1.124 5.043-4.363 9.554-4.423h.291c2.374.258 4.688 1.533 7.032 3.89 3.903 3.92 8.232 6.044 12.9 6.336h.388c.702.066 1.407.085 2.112.059 7.023-.292 12.248-5 14.018-6.817.367-.35.6-.591.646-.642zM30.831 15.205h-4.645v10.981h4.645V15.205zm8.026 0H34.21v10.981h4.646V15.205zm8.025 0h-4.646v10.981h4.646V15.205zm2.533 12.671H23.229v2.111h26.186v-2.111zm.422-15.628H23.228v1.268h26.61v-1.268zm2.535 18.584H20.695v2.112h31.677v-2.112zM23.229 11.404h26.608L36.53 3.8l-13.3 7.603z"/><path d="M36.326 2.524l15.794 9.302 1.097-1.877-16.891-9.95-16.898 9.95 1.096 1.877 15.802-9.302z"/></g><defs><clipPath id="clip0"><path fill="#fff" d="M0 0h54.062v54.062H0z"/></clipPath></defs></svg>
